X:21
T:Mrs. MacLeod's Reel
C:Traditional
M:4/4
L:1/8
K:A
%
cB | "A" A2 a2 "D" fefa | "A" c2 cB "E7" cdcB | "A" A2 a2 "D" fefa | "E" B2 BA BdcB |
"A" A2 a2 "D" fefa | "A" c2 cB c2 ce | "D" fgfe f2 (3efg | "A" a2 ec "E" B2 :|
|: cB | "A" A2 cB eccB | c2 cB "E7" cdcB | "A" A2 cA eccA | "E" B2 BA BdcB |
"A" A2 cA eccB | "A" cdcB c2 e2 | "D" fgfe f2 (3efg | "A" a2 ec "E" B2 :|
%%topmargin 1.2 in
%%bottommargin 1.0 in
%%titlefont Times-Roman 24
%%composerspace 0
%%partsspace 0
%%writehistory 1
%%scale 0.7
%%maxshrink 1
%
